X:10
T:Morrison's
M:6/8
R:jig
K:EDor
|~E3 BEB|EBE AFD|~E3 BEB|dcB AFD|~E3 BEB|EBE AFD|~G3 FGA|BAG FED:|
Bee fee|aee fed|Bee fee|fag fed|Bee fee|aee fed|gfe d2A|BAG FED|
Bee fee|aee fed|Bee fee|faf def|~g3 gfe|def g2 d|edc d2 A|BAG FED||
<end>
<start>
